icons/unity-panel/24x24/panel/unity-battery-080.svg

<?xml version="1.0" encoding="UTF-8" standalone="no"?>
<svg
   viewBox="0 0 17 24"
   version="1.1"
   id="svg10"
   sodipodi:docname="unity-battery-080.svg"
   inkscape:version="1.1.1 (3bf5ae0d25, 2021-09-20)"
   xmlns:inkscape="http://www.inkscape.org/namespaces/inkscape"
   xmlns:sodipodi="http://sodipodi.sourceforge.net/DTD/sodipodi-0.dtd"
   xmlns="http://www.w3.org/2000/svg"
   xmlns:svg="http://www.w3.org/2000/svg">
  <defs
     id="defs14" />
  <sodipodi:namedview
     id="namedview12"
     pagecolor="#ffffff"
     bordercolor="#666666"
     borderopacity="1.0"
     inkscape:pageshadow="2"
     inkscape:pageopacity="0.0"
     inkscape:pagecheckerboard="0"
     showgrid="false"
     inkscape:zoom="11.083333"
     inkscape:cx="8.5263158"
     inkscape:cy="12.045113"
     inkscape:window-width="1298"
     inkscape:window-height="704"
     inkscape:window-x="68"
     inkscape:window-y="27"
     inkscape:window-maximized="1"
     inkscape:current-layer="svg10" />
  <path
     id="path2-3"
     style="fill:#ffffff;fill-opacity:1"
     d="M 6,3 V 4.0136719 C 5.233143,4.0312837 4.596604,4.0921864 4.0625,4.3867188 3.68672,4.5937187 3.38851,4.9438125 3.22461,5.3828125 3.059703,5.8208135 3,6.342 3,7 v 1 9 1 c 0,0.658 0.0597,1.179187 0.22461,1.617188 0.1639,0.439 0.46211,0.789093 0.83789,0.996093 0.647669,0.357158 1.433601,0.375249 2.4375,0.382813 v 0.0039 h 0.492188 0.0078 3 0.0078 0.492188 v -0.0039 c 1.0039,-0.0076 1.789831,-0.02566 2.4375,-0.382813 0.37578,-0.207 0.673991,-0.557093 0.837891,-0.996093 0.164909,-0.438007 0.224609,-0.959194 0.224609,-1.617194 v -1 -9 -1 c 0,-0.658 -0.0597,-1.1791865 -0.224609,-1.6171875 -0.1639,-0.439 -0.462111,-0.789094 -0.837891,-0.9960937 C 12.403396,4.0921863 11.766858,4.0312837 11,4.0136719 V 3 Z m 0.998047,2 h 3.003906 c 1.2583,0.015 2.088325,0.05972 2.453125,0.2617188 0.18389,0.1 0.286825,0.2136562 0.384766,0.4726562 C 12.936754,5.994375 13,6.40802 13,7 v 1 9 1 c 0,0.59198 -0.06325,1.005625 -0.160156,1.265625 -0.09794,0.259 -0.200876,0.372656 -0.384766,0.472656 C 12.090278,19.94028 11.260253,19.985 10.001953,20 h -0.002 -3 -0.002 C 5.739653,19.985 4.909628,19.94028 4.544828,19.738281 4.360938,19.638281 4.258003,19.524625 4.160063,19.265625 4.063103,19.005625 3.999906,18.59198 3.999906,18 V 17 8 7 c 0,-0.59198 0.0632,-1.005625 0.160157,-1.265625 0.09794,-0.259 0.200875,-0.3726563 0.384765,-0.4726562 C 4.909628,5.0597196 5.739653,5.015 6.997953,5 Z" />
  <path
     id="rect1191"
     style="fill:#ffffff;fill-opacity:1;stroke-width:2"
     d="m 5,8 v 10 c 0,0.554 0.446,1 1,1 h 5 c 0.554,0 1,-0.446 1,-1 V 8 Z"
     sodipodi:nodetypes="csssscc" />
</svg>

<svg version="1.1" viewBox="0 0 17 24" xmlns="http://www.w3.org/2000/svg">
 <path d="m6 3v1.0137c-0.76686 0.017612-1.4034 0.078514-1.9375 0.37305-0.37578 0.207-0.67399 0.55709-0.83789 0.99609-0.16491 0.438-0.22461 0.95919-0.22461 1.6172v11c0 0.658 0.0597 1.1792 0.22461 1.6172 0.1639 0.439 0.46211 0.78909 0.83789 0.99609 0.64767 0.35716 1.4336 0.37525 2.4375 0.38281v0.0039h4v-0.0039c1.0039-0.0076 1.7898-0.02566 2.4375-0.38281 0.37578-0.207 0.67399-0.55709 0.83789-0.99609 0.16491-0.43801 0.22461-0.95919 0.22461-1.6172v-11c0-0.658-0.0597-1.1792-0.22461-1.6172-0.1639-0.439-0.46211-0.78909-0.83789-0.99609-0.53408-0.29453-1.1706-0.35543-1.9375-0.37304v-1.0137zm0.99805 2h3.0039c1.2583 0.015 2.0883 0.05972 2.4531 0.26172 0.18389 0.1 0.28682 0.21366 0.38477 0.47266 0.09691 0.26 0.16016 0.67364 0.16016 1.2656v11c0 0.59198-0.06325 1.0056-0.16016 1.2656-0.09794 0.259-0.20088 0.37266-0.38477 0.47266-0.3648 0.202-1.1948 0.24672-2.4531 0.26172h-3.004c-1.2583-0.015-2.0883-0.05972-2.4531-0.26172-0.18389-0.1-0.28682-0.21366-0.38476-0.47266-0.09696-0.26-0.16016-0.67364-0.16016-1.2656v-11c0-0.59198 0.0632-1.0056 0.16016-1.2656 0.09794-0.259 0.20088-0.37266 0.38476-0.47266 0.3648-0.202 1.1948-0.24672 2.4531-0.26172z" fill="#fff"/>
 <path d="m5 8v10c0 0.554 0.446 1 1 1h5c0.554 0 1-0.446 1-1v-10z" fill="#fff" stroke-width="2"/>
</svg>
